X: 128009
M: 6/8
L: 1/8
K: D
[|\
vDFA ud2uf | edc uB2ud | vA2vd uF2uB | AGF E2F |\
uf |\
ve^de uA2uf | e^de a2f | efe dcB | A2B c2f |
e^de A2f | e^de a2f | efe dcB | ABA GFE ||\
vD2vf fef | d2A A2A | A2f fef | g2e e2e |\


